X: 1
T: Ciao, Ciao, Bambina   [C]
C: Modugno-Verdi
M: C|
L: 1/4
K: C
HG HA HB \
|: "Dm"A2 A2 | zF ED | F2 F2 | "G7"zG AB | "C"G2 G2 | zE DC | E4 | zE DC |
|1 "C(Am)"E2 E2 | zG FE | "Em"G2 G2 | zG Ac | "A7"B2 A2 | "D7"z^F GA | "G"B4 | "G7"zG AB :|
|2 "C(Am)"E2 E2 | zG FE | "Em"G2 G2 | zG AG | "D7"A2 A2 | "G7"zB cd | "C"c4 | z |]

%%sep 1 1 500
%%sep 1 1 500


